app/assets/images/icons/active/insurance.svg

<?xml version="1.0" encoding="UTF-8" standalone="no"?>
<svg width="32px" height="232px" viewBox="0 0 32 232" version="1.1" xmlns="http://www.w3.org/2000/svg" xmlns:xlink="http://www.w3.org/1999/xlink" xmlns:sketch="http://www.bohemiancoding.com/sketch/ns">
    <title>insurance</title>
    <description>Created with Sketch (http://www.bohemiancoding.com/sketch)</description>
    <defs></defs>
    <g id="Categories" stroke="none" stroke-width="1" fill="none" fill-rule="evenodd" sketch:type="MSPage">
        <path d="M16.008521,124 C15.3918632,124 14.8993314,124.737 15.1882966,125.792 C9.32855799,126.322 5.49256911,129.338 3.35561646,133.619 C2.63965789,135.055 1.94753149,136.727 2.00313993,138.611 C2.46290251,138.149 2.58305644,137.652 3.07558828,137.25 C3.69224608,136.742 4.51842852,136.49 5.34560396,136.49 C6.20852768,136.49 7.06946539,136.764 7.69406726,137.309 C8.04261297,137.613 8.37626357,138.616 8.92341083,138.616 C8.945257,138.616 8.96809618,138.613 8.98894934,138.611 C9.3176349,138.567 9.54404067,137.914 9.72278206,137.707 C10.3086566,137.009 11.2410909,136.442 12.4257491,136.442 C12.53498,136.442 12.6491759,136.445 12.7613857,136.457 C13.6650228,136.537 14.9916811,137.117 15.1882966,137.875 C15.3759751,138.623 15.1882966,139.738 15.1882966,140.656 L15.1882966,146.215 C15.1882966,147.12 15.3312897,148.188 15.1316952,148.938 C14.8794712,149.883 14.0185335,150.351 13.1595818,150.351 C12.3482945,150.351 11.5399862,149.936 11.2410909,149.11 C10.9769508,148.373 11.1676083,147.697 10.5122232,147.576 C10.4069644,147.557 10.3106426,147.549 10.225244,147.549 C8.70197011,147.549 10.103104,150.412 10.3970343,150.752 C10.9600697,151.409 11.9937907,152 13.1317776,152 L13.1556098,152 C15.2051778,151.99 16.5983676,150.434 16.7612209,148.655 C17.0710393,145.327 16.5298501,141.505 16.7612209,137.819 C17.3232633,136.892 18.314285,136.508 19.3291389,136.508 C20.4810279,136.508 21.6637001,137.003 22.2803579,137.762 C22.5871973,138.134 22.6040784,138.612 23.0429878,138.612 C23.0529179,138.612 23.061855,138.611 23.071785,138.611 C23.5553798,138.595 23.9426528,137.556 24.3130447,137.25 C24.9436046,136.732 25.763829,136.48 26.5780953,136.48 C27.4430051,136.48 28.3029498,136.762 28.9295377,137.309 C29.4022093,137.719 29.489594,138.229 30,138.611 C29.6812445,134.843 28.0139845,131.87 25.8333395,129.763 C23.6268764,127.628 20.6200489,126.109 16.7612209,125.735 C16.7373887,125.268 16.8208013,124.694 16.7085915,124.318 C16.4801997,124.1 16.2349268,124 16.008521,124 L23.5664019,133.830078" id="insurance--lp-blue" fill="#206FAC" sketch:type="MSShapeGroup"></path>
        <path d="M16.008521,84 C15.3918632,84 14.8993314,84.737 15.1882966,85.792 C9.32855799,86.322 5.49256911,89.338 3.35561646,93.619 C2.63965789,95.055 1.94753149,96.727 2.00313993,98.611 C2.46290251,98.149 2.58305644,97.652 3.07558828,97.25 C3.69224608,96.742 4.51842852,96.49 5.34560396,96.49 C6.20852768,96.49 7.06946539,96.764 7.69406726,97.309 C8.04261297,97.613 8.37626357,98.616 8.92341083,98.616 C8.945257,98.616 8.96809618,98.613 8.98894934,98.611 C9.3176349,98.567 9.54404067,97.914 9.72278206,97.707 C10.3086566,97.009 11.2410909,96.442 12.4257491,96.442 C12.53498,96.442 12.6491759,96.445 12.7613857,96.457 C13.6650228,96.537 14.9916811,97.117 15.1882966,97.875 C15.3759751,98.623 15.1882966,99.738 15.1882966,100.656 L15.1882966,106.215 C15.1882966,107.12 15.3312897,108.188 15.1316952,108.938 C14.8794712,109.883 14.0185335,110.351 13.1595818,110.351 C12.3482945,110.351 11.5399862,109.936 11.2410909,109.11 C10.9769508,108.373 11.1676083,107.697 10.5122232,107.576 C10.4069644,107.557 10.3106426,107.549 10.225244,107.549 C8.70197011,107.549 10.103104,110.412 10.3970343,110.752 C10.9600697,111.409 11.9937907,112 13.1317776,112 L13.1556098,112 C15.2051778,111.99 16.5983676,110.434 16.7612209,108.655 C17.0710393,105.327 16.5298501,101.505 16.7612209,97.819 C17.3232633,96.892 18.314285,96.508 19.3291389,96.508 C20.4810279,96.508 21.6637001,97.003 22.2803579,97.762 C22.5871973,98.134 22.6040784,98.612 23.0429878,98.612 C23.0529179,98.612 23.061855,98.611 23.071785,98.611 C23.5553798,98.595 23.9426528,97.556 24.3130447,97.25 C24.9436046,96.732 25.763829,96.48 26.5780953,96.48 C27.4430051,96.48 28.3029498,96.762 28.9295377,97.309 C29.4022093,97.719 29.489594,98.229 30,98.611 C29.6812445,94.843 28.0139845,91.87 25.8333395,89.763 C23.6268764,87.628 20.6200489,86.109 16.7612209,85.735 C16.7373887,85.268 16.8208013,84.694 16.7085915,84.318 C16.4801997,84.1 16.2349268,84 16.008521,84 L23.5664019,93.8300781" id="insurance--white" fill="#FFFFFF" sketch:type="MSShapeGroup"></path>
        <path d="M16.008521,44 C15.3918632,44 14.8993314,44.737 15.1882966,45.792 C9.32855799,46.322 5.49256911,49.338 3.35561646,53.619 C2.63965789,55.055 1.94753149,56.727 2.00313993,58.611 C2.46290251,58.149 2.58305644,57.652 3.07558828,57.25 C3.69224608,56.742 4.51842852,56.49 5.34560396,56.49 C6.20852768,56.49 7.06946539,56.764 7.69406726,57.309 C8.04261297,57.613 8.37626357,58.616 8.92341083,58.616 C8.945257,58.616 8.96809618,58.613 8.98894934,58.611 C9.3176349,58.567 9.54404067,57.914 9.72278206,57.707 C10.3086566,57.009 11.2410909,56.442 12.4257491,56.442 C12.53498,56.442 12.6491759,56.445 12.7613857,56.457 C13.6650228,56.537 14.9916811,57.117 15.1882966,57.875 C15.3759751,58.623 15.1882966,59.738 15.1882966,60.656 L15.1882966,66.215 C15.1882966,67.12 15.3312897,68.188 15.1316952,68.938 C14.8794712,69.883 14.0185335,70.351 13.1595818,70.351 C12.3482945,70.351 11.5399862,69.936 11.2410909,69.11 C10.9769508,68.373 11.1676083,67.697 10.5122232,67.576 C10.4069644,67.557 10.3106426,67.549 10.225244,67.549 C8.70197011,67.549 10.103104,70.412 10.3970343,70.752 C10.9600697,71.409 11.9937907,72 13.1317776,72 L13.1556098,72 C15.2051778,71.99 16.5983676,70.434 16.7612209,68.655 C17.0710393,65.327 16.5298501,61.505 16.7612209,57.819 C17.3232633,56.892 18.314285,56.508 19.3291389,56.508 C20.4810279,56.508 21.6637001,57.003 22.2803579,57.762 C22.5871973,58.134 22.6040784,58.612 23.0429878,58.612 C23.0529179,58.612 23.061855,58.611 23.071785,58.611 C23.5553798,58.595 23.9426528,57.556 24.3130447,57.25 C24.9436046,56.732 25.763829,56.48 26.5780953,56.48 C27.4430051,56.48 28.3029498,56.762 28.9295377,57.309 C29.4022093,57.719 29.489594,58.229 30,58.611 C29.6812445,54.843 28.0139845,51.87 25.8333395,49.763 C23.6268764,47.628 20.6200489,46.109 16.7612209,45.735 C16.7373887,45.268 16.8208013,44.694 16.7085915,44.318 C16.4801997,44.1 16.2349268,44 16.008521,44 L23.5664019,53.8300781" id="insurance--body-grey" fill="#67737B" sketch:type="MSShapeGroup"></path>
        <path d="M16.008521,4 C15.3918632,4 14.8993314,4.737 15.1882966,5.792 C9.32855799,6.322 5.49256911,9.338 3.35561646,13.619 C2.63965789,15.055 1.94753149,16.727 2.00313993,18.611 C2.46290251,18.149 2.58305644,17.652 3.07558828,17.25 C3.69224608,16.742 4.51842852,16.49 5.34560396,16.49 C6.20852768,16.49 7.06946539,16.764 7.69406726,17.309 C8.04261297,17.613 8.37626357,18.616 8.92341083,18.616 C8.945257,18.616 8.96809618,18.613 8.98894934,18.611 C9.3176349,18.567 9.54404067,17.914 9.72278206,17.707 C10.3086566,17.009 11.2410909,16.442 12.4257491,16.442 C12.53498,16.442 12.6491759,16.445 12.7613857,16.457 C13.6650228,16.537 14.9916811,17.117 15.1882966,17.875 C15.3759751,18.623 15.1882966,19.738 15.1882966,20.656 L15.1882966,26.215 C15.1882966,27.12 15.3312897,28.188 15.1316952,28.938 C14.8794712,29.883 14.0185335,30.351 13.1595818,30.351 C12.3482945,30.351 11.5399862,29.936 11.2410909,29.11 C10.9769508,28.373 11.1676083,27.697 10.5122232,27.576 C10.4069644,27.557 10.3106426,27.549 10.225244,27.549 C8.70197011,27.549 10.103104,30.412 10.3970343,30.752 C10.9600697,31.409 11.9937907,32 13.1317776,32 L13.1556098,32 C15.2051778,31.99 16.5983676,30.434 16.7612209,28.655 C17.0710393,25.327 16.5298501,21.505 16.7612209,17.819 C17.3232633,16.892 18.314285,16.508 19.3291389,16.508 C20.4810279,16.508 21.6637001,17.003 22.2803579,17.762 C22.5871973,18.134 22.6040784,18.612 23.0429878,18.612 C23.0529179,18.612 23.061855,18.611 23.071785,18.611 C23.5553798,18.595 23.9426528,17.556 24.3130447,17.25 C24.9436046,16.732 25.763829,16.48 26.5780953,16.48 C27.4430051,16.48 28.3029498,16.762 28.9295377,17.309 C29.4022093,17.719 29.489594,18.229 30,18.611 C29.6812445,14.843 28.0139845,11.87 25.8333395,9.763 C23.6268764,7.628 20.6200489,6.109 16.7612209,5.735 C16.7373887,5.268 16.8208013,4.694 16.7085915,4.318 C16.4801997,4.1 16.2349268,4 16.008521,4 L23.5664019,13.8300781" id="insurance--title-grey" fill="#3A434E" sketch:type="MSShapeGroup"></path>
    </g>
</svg>

<svg width="32" height="232" viewBox="0 0 32 232" xmlns="http://www.w3.org/2000/svg" xmlns:sketch="http://www.bohemiancoding.com/sketch/ns"><title>insurance</title><g sketch:type="MSPage" fill="none"><path d="M16.009 124c-.617 0-1.109.737-.82 1.792-5.86.53-9.696 3.546-11.833 7.827-.716 1.436-1.408 3.108-1.352 4.992.46-.462.58-.959 1.072-1.361.617-.508 1.443-.76 2.27-.76.863 0 1.724.274 2.348.819.349.304.682 1.307 1.229 1.307l.066-.005c.329-.044.555-.697.734-.904.586-.698 1.518-1.265 2.703-1.265l.336.015c.904.08 2.23.66 2.427 1.418.188.748 0 1.863 0 2.781v5.559c0 .905.143 1.973-.057 2.723-.252.945-1.113 1.413-1.972 1.413-.811 0-1.62-.415-1.918-1.241-.264-.737-.073-1.413-.729-1.534l-.287-.027c-1.523 0-.122 2.863.172 3.203.563.657 1.597 1.248 2.735 1.248h.024c2.05-.01 3.443-1.566 3.606-3.345.31-3.328-.231-7.15 0-10.836.562-.927 1.553-1.311 2.568-1.311 1.152 0 2.335.495 2.951 1.254.307.372.324.85.763.85l.029-.001c.484-.016.871-1.055 1.241-1.361.631-.518 1.451-.77 2.265-.77.865 0 1.725.282 2.351.829.473.41.56.92 1.07 1.302-.319-3.768-1.986-6.741-4.167-8.848-2.206-2.135-5.213-3.654-9.072-4.028-.024-.467.06-1.041-.053-1.417-.228-.218-.474-.318-.7-.318l7.558 9.83" fill="#206FAC" sketch:type="MSShapeGroup"/><path d="M16.009 84c-.617 0-1.109.737-.82 1.792-5.86.53-9.696 3.546-11.833 7.827-.716 1.436-1.408 3.108-1.352 4.992.46-.462.58-.959 1.072-1.361.617-.508 1.443-.76 2.27-.76.863 0 1.724.274 2.348.819.349.304.682 1.307 1.229 1.307l.066-.005c.329-.044.555-.697.734-.904.586-.698 1.518-1.265 2.703-1.265l.336.015c.904.08 2.23.66 2.427 1.418.188.748 0 1.863 0 2.781v5.559c0 .905.143 1.973-.057 2.723-.252.945-1.113 1.413-1.972 1.413-.811 0-1.62-.415-1.918-1.241-.264-.737-.073-1.413-.729-1.534l-.287-.027c-1.523 0-.122 2.863.172 3.203.563.657 1.597 1.248 2.735 1.248h.024c2.05-.01 3.443-1.566 3.606-3.345.31-3.328-.231-7.15 0-10.836.562-.927 1.553-1.311 2.568-1.311 1.152 0 2.335.495 2.951 1.254.307.372.324.85.763.85l.029-.001c.484-.016.871-1.055 1.241-1.361.631-.518 1.451-.77 2.265-.77.865 0 1.725.282 2.351.829.473.41.56.92 1.07 1.302-.319-3.768-1.986-6.741-4.167-8.848-2.206-2.135-5.213-3.654-9.072-4.028-.024-.467.06-1.041-.053-1.417-.228-.218-.474-.318-.7-.318l7.558 9.83" fill="#fff" sketch:type="MSShapeGroup"/><path d="M16.009 44c-.617 0-1.109.737-.82 1.792-5.86.53-9.696 3.546-11.833 7.827-.716 1.436-1.408 3.108-1.352 4.992.46-.462.58-.959 1.072-1.361.617-.508 1.443-.76 2.27-.76.863 0 1.724.274 2.348.819.349.304.682 1.307 1.229 1.307l.066-.005c.329-.044.555-.697.734-.904.586-.698 1.518-1.265 2.703-1.265l.336.015c.904.08 2.23.66 2.427 1.418.188.748 0 1.863 0 2.781v5.559c0 .905.143 1.973-.057 2.723-.252.945-1.113 1.413-1.972 1.413-.811 0-1.62-.415-1.918-1.241-.264-.737-.073-1.413-.729-1.534l-.287-.027c-1.523 0-.122 2.863.172 3.203.563.657 1.597 1.248 2.735 1.248h.024c2.05-.01 3.443-1.566 3.606-3.345.31-3.328-.231-7.15 0-10.836.562-.927 1.553-1.311 2.568-1.311 1.152 0 2.335.495 2.951 1.254.307.372.324.85.763.85l.029-.001c.484-.016.871-1.055 1.241-1.361.631-.518 1.451-.77 2.265-.77.865 0 1.725.282 2.351.829.473.41.56.92 1.07 1.302-.319-3.768-1.986-6.741-4.167-8.848-2.206-2.135-5.213-3.654-9.072-4.028-.024-.467.06-1.041-.053-1.417-.228-.218-.474-.318-.7-.318l7.558 9.83" fill="#67737B" sketch:type="MSShapeGroup"/><path d="M16.009 4c-.617 0-1.109.737-.82 1.792-5.86.53-9.696 3.546-11.833 7.827-.716 1.436-1.408 3.108-1.352 4.992.46-.462.58-.959 1.072-1.361.617-.508 1.443-.76 2.27-.76.863 0 1.724.274 2.348.819.349.304.682 1.307 1.229 1.307l.066-.005c.329-.044.555-.697.734-.904.586-.698 1.518-1.265 2.703-1.265l.336.015c.904.08 2.23.66 2.427 1.418.188.748 0 1.863 0 2.781v5.559c0 .905.143 1.973-.057 2.723-.252.945-1.113 1.413-1.972 1.413-.811 0-1.62-.415-1.918-1.241-.264-.737-.073-1.413-.729-1.534l-.287-.027c-1.523 0-.122 2.863.172 3.203.563.657 1.597 1.248 2.735 1.248h.024c2.05-.01 3.443-1.566 3.606-3.345.31-3.328-.231-7.15 0-10.836.562-.927 1.553-1.311 2.568-1.311 1.152 0 2.335.495 2.951 1.254.307.372.324.85.763.85l.029-.001c.484-.016.871-1.055 1.241-1.361.631-.518 1.451-.77 2.265-.77.865 0 1.725.282 2.351.829.473.41.56.92 1.07 1.302-.319-3.768-1.986-6.741-4.167-8.848-2.206-2.135-5.213-3.654-9.072-4.028-.024-.467.06-1.041-.053-1.417-.228-.218-.474-.318-.7-.318l7.558 9.83" fill="#3A434E" sketch:type="MSShapeGroup"/></g></svg>
